images/types-type-3-1.svg

<svg width="20" height="20" viewBox="0 0 20 20" fill="none" xmlns="http://www.w3.org/2000/svg">
<g clip-path="url(#clip0_0_486)">
<path d="M12.9705 7.07032C12.7279 7.20215 12.4252 7.11263 12.295 6.87175C12.1632 6.62924 12.2527 6.3265 12.4952 6.19629C13.641 5.57455 14.1749 4.77051 14.2823 3.98438C14.3393 3.56446 14.2742 3.14291 14.1163 2.75228C13.9552 2.35678 13.6996 1.99707 13.3757 1.70736C12.7458 1.14421 11.8621 0.847986 10.9392 1.07748C10.5649 1.17025 10.241 1.35743 9.95776 1.6211C9.65666 1.90105 9.39624 2.26726 9.16838 2.7002C9.03979 2.94434 8.73869 3.03711 8.49617 2.91016C8.25203 2.78158 8.15926 2.48047 8.28621 2.23796C8.56616 1.70736 8.89331 1.25163 9.28068 0.890304C9.68595 0.514327 10.1563 0.244145 10.7032 0.109054C11.9727 -0.205074 13.182 0.195317 14.0414 0.963546C14.4776 1.35417 14.8243 1.84082 15.0424 2.37793C15.2621 2.91993 15.3516 3.51563 15.2686 4.11947C15.1205 5.19694 14.4304 6.27767 12.9705 7.07032ZM9.1521 11.0042C7.26408 8.46843 7.21851 6.06608 9.51017 3.83301L7.85978 2.92155C6.53817 2.40723 4.11304 6.19792 5.05054 7.21029L6.33634 9.11784L6.07104 9.67123C5.9978 9.83562 6.06942 9.95118 6.24845 10.0309L6.42261 10.0781L3.07788 16.6976L3.75496 18.1413L5.10913 17.7425L5.45744 17.0654L5.12378 16.4404L5.85946 16.2826L6.03035 15.9505L5.64624 15.3646L5.89852 14.8747L6.63257 14.7819L6.87183 14.318L6.46167 13.7826L6.72371 13.2747L7.47241 13.1527L8.49129 11.2077L8.66382 11.3021C8.9633 11.4844 9.11792 11.3672 9.1521 11.0042ZM12.7052 12.5944L12.2071 14.4531L11.5154 14.7266L11.3705 15.2686L11.8751 15.6966L11.7432 16.1898L11.0597 16.4307L10.9197 16.9515L11.4096 17.4316L11.3152 17.7848L10.643 18.0892L11.0922 18.6182L10.8985 19.3392L9.68595 20.0016L8.73869 18.7598L10.5453 12.0166L10.1075 11.8994C10.018 11.875 9.96265 11.7822 9.98706 11.6911L10.171 11.0059C8.84611 10.0016 8.19019 8.26335 8.64591 6.55925C9.23185 4.37012 11.4421 3.04851 13.6329 3.54004C13.6427 3.65723 13.641 3.77605 13.6248 3.89486C13.5841 4.19108 13.4555 4.49545 13.2179 4.79004C13.1853 4.82911 13.1511 4.8698 13.1153 4.90886C12.4154 4.86329 11.7595 5.31576 11.5707 6.01888C11.4893 6.32162 11.5072 6.62761 11.6033 6.90267C11.6261 7.00033 11.6635 7.09473 11.7123 7.1875C11.8279 7.39909 11.9972 7.56023 12.1957 7.66276C12.3259 7.74903 12.4724 7.81413 12.6303 7.85808C13.4164 8.06804 14.2221 7.61556 14.4565 6.84245C14.6941 6.63249 14.9008 6.41114 15.0782 6.18327C15.4233 5.73894 15.6593 5.26693 15.7992 4.78679C16.7498 5.81218 17.168 7.28842 16.7791 8.74024C16.3233 10.4443 14.8829 11.6227 13.2358 11.8294L13.0518 12.5147C13.0274 12.6042 12.9347 12.6595 12.8435 12.6351L12.7052 12.5944Z" fill="#747171"/>
</g>
<defs>
<clipPath id="clip0_0_486">
<rect width="20" height="20" fill="white"/>
</clipPath>
</defs>
</svg>

<svg width="20" height="20" fill="none" xmlns="http://www.w3.org/2000/svg"><g clip-path="url(#clip0_0_486)"><path d="M12.97 7.07a.497.497 0 11-.475-.874c1.146-.621 1.68-1.425 1.787-2.212a2.416 2.416 0 00-.166-1.232 2.855 2.855 0 00-.74-1.045c-.63-.563-1.514-.859-2.437-.63-.374.093-.698.28-.981.544-.301.28-.562.646-.79 1.08a.499.499 0 01-.882-.463c.28-.53.607-.986.995-1.348a3.196 3.196 0 011.422-.78c1.27-.315 2.479.085 3.338.854.437.39.783.877 1.001 1.414.22.542.31 1.138.227 1.741-.149 1.078-.839 2.159-2.299 2.951zm-3.818 3.934C7.264 8.468 7.22 6.066 9.51 3.833l-1.65-.911C6.538 2.407 4.113 6.198 5.05 7.21l1.286 1.908-.265.553c-.073.165-.002.28.177.36l.175.047-3.345 6.62.677 1.443 1.354-.398.348-.678-.333-.625.735-.157.171-.333-.384-.585.253-.49.734-.093.239-.464-.41-.535.262-.508.748-.122 1.02-1.945.172.094c.3.182.454.065.488-.298zm3.553 1.59l-.498 1.86-.692.273-.145.542.505.428-.132.493-.683.24-.14.521.49.48-.095.354-.672.304.45.53-.194.72-1.213.663-.947-1.242 1.806-6.743-.438-.118a.17.17 0 01-.12-.208l.184-.685a4.212 4.212 0 013.462-7.466c.01.117.008.236-.008.355-.04.296-.17.6-.407.895-.033.04-.067.08-.103.119a1.5 1.5 0 00-1.512 1.994 1.152 1.152 0 00.592.76 1.503 1.503 0 002.26-.82c.24-.21.446-.432.623-.66.345-.444.581-.916.721-1.396a4.211 4.211 0 01-2.563 7.043l-.184.685a.17.17 0 01-.208.12l-.139-.04z" fill="#747171"/></g><defs><clipPath id="clip0_0_486"><path fill="#fff" d="M0 0h20v20H0z"/></clipPath></defs></svg>
